rospo-icon-theme-classic-common/16x16/apps/flightgear.svg

<svg height="16" width="16" xmlns="http://www.w3.org/2000/svg"><rect fill="#1e87e4" height="16" rx="1" transform="matrix(0 -1 -1 0 0 0)" width="16" x="-16" y="-16"/><path d="m14 2.6272q0 .7474-1.28 2.0273l-2.061 2.0615 1.228 6.408.009.052q0 .12-.077.198l-.551.549q-.077.077-.197.077-.181 0-.249-.154l-2.3538-4.9397-2.1045 2.1037q.5841 2.046.5841 2.166 0 .12-.0773.197l-.5498.55q-.0773.077-.1976.077-.1546 0-.2405-.138l-1.3314-2.405-2.4051-1.331q-.1461-.077-.1461-.2411 0-.12.0774-.1972l.5497-.5583q.0773-.0772.1976-.0772.1203 0 2.1646.5842l2.1045-2.1046-4.9391-2.3537q-.1547-.0685-.1547-.2491 0-.1202.0774-.1975l.5497-.5497q.0773-.0772.1976-.0772.0344 0 .0515.0086l6.408 1.2283 2.0608-2.0616q1.281-1.2799 2.028-1.2799.275 0 .451.1761.176.1761.176.4509z" fill="#fff"/></svg>

<svg xmlns="http://www.w3.org/2000/svg" width="16" height="16" version="1">
 <rect style="fill:#1e87e4" width="16" height="16" x="-16" y="-16" rx="1" ry="1" transform="matrix(0,-1,-1,0,0,0)"/>
 <path style="fill:#ffffff" d="M 14,2.6272 Q 14,3.3746 12.72,4.6545 L 10.659,6.716 11.887,13.124 11.896,13.176 Q 11.896,13.296 11.819,13.374 L 11.268,13.923 Q 11.191,14 11.071,14 10.89,14 10.822,13.846 L 8.4682,8.9063 6.3637,11.01 Q 6.9478,13.056 6.9478,13.176 6.9478,13.296 6.8705,13.373 L 6.3207,13.923 Q 6.2434,14 6.1231,14 5.9685,14 5.8826,13.862 L 4.5512,11.457 2.1461,10.126 Q 2,10.049 2,9.8849 2,9.7649 2.0774,9.6877 L 2.6271,9.1294 Q 2.7044,9.0522 2.8247,9.0522 2.945,9.0522 4.9893,9.6364 L 7.0938,7.5318 2.1547,5.1781 Q 2,5.1096 2,4.929 2,4.8088 2.0774,4.7315 L 2.6271,4.1818 Q 2.7044,4.1046 2.8247,4.1046 2.8591,4.1046 2.8762,4.1132 L 9.2842,5.3415 11.345,3.2799 Q 12.626,2 13.373,2 13.648,2 13.824,2.1761 14,2.3522 14,2.627 Z"/>
</svg>
